Numix/256x256/categories/applications-java.svg

<?xml version="1.0" encoding="UTF-8" standalone="no"?>
<svg
   xmlns:dc="http://purl.org/dc/elements/1.1/"
   xmlns:cc="http://creativecommons.org/ns#"
   xmlns:rdf="http://www.w3.org/1999/02/22-rdf-syntax-ns#"
   xmlns:svg="http://www.w3.org/2000/svg"
   xmlns="http://www.w3.org/2000/svg"
   xmlns:sodipodi="http://sodipodi.sourceforge.net/DTD/sodipodi-0.dtd"
   xmlns:inkscape="http://www.inkscape.org/namespaces/inkscape"
   width="256"
   height="256"
   viewBox="0 0 256 256"
   id="svg2"
   version="1.1"
   inkscape:version="0.91 r"
   sodipodi:docname="applications-java.svg">
  <metadata
     id="metadata26">
    <rdf:RDF>
      <cc:Work
         rdf:about="">
        <dc:format>image/svg+xml</dc:format>
        <dc:type
           rdf:resource="http://purl.org/dc/dcmitype/StillImage" />
      </cc:Work>
    </rdf:RDF>
  </metadata>
  <defs
     id="defs24" />
  <sodipodi:namedview
     pagecolor="#ffffff"
     bordercolor="#666666"
     borderopacity="1"
     objecttolerance="10"
     gridtolerance="10"
     guidetolerance="10"
     inkscape:pageopacity="0"
     inkscape:pageshadow="2"
     inkscape:window-width="1920"
     inkscape:window-height="1056"
     id="namedview22"
     showgrid="false"
     inkscape:zoom="0.921875"
     inkscape:cx="128"
     inkscape:cy="128"
     inkscape:window-x="0"
     inkscape:window-y="24"
     inkscape:window-maximized="1"
     inkscape:current-layer="svg2" />
  <g
     style="fill:#e660c1;fill-rule:evenodd"
     id="g4"
     transform="matrix(1.0412328,0,0,1.0412328,-3.8927033,-3.8890211)">
    <path
       d="m 100.70313,180.75391 c 0,0 -7.57813,4.40234 5.36328,5.91406 15.70312,1.76953 23.69921,1.50781 40.99218,-1.7461 0,0 4.55469,2.83985 10.88282,5.3125 -38.75,16.61329 -87.679691,-0.96484 -57.23828,-9.48046"
       id="path6"
       inkscape:connector-curvature="0" />
    <path
       d="m 95.964844,159.08984 c 0,0 -8.492188,6.30078 4.476566,7.62891 16.74609,1.71875 29.97656,1.875 52.86718,-2.52734 0,0 3.17578,3.20312 8.14844,4.94921 -46.84765,13.69922 -99.035155,1.09375 -65.492186,-10.05078"
       id="path8"
       inkscape:connector-curvature="0" />
    <path
       d="m 135.85937,122.34375 c 9.5586,10.98828 -2.5,20.88672 -2.5,20.88672 0,0 24.2461,-12.52735 13.09766,-28.17969 -10.39062,-14.63281 -18.35937,-21.874999 24.82031,-46.92578 0,0 -67.76171,16.925781 -35.41797,54.21875"
       id="path10"
       inkscape:connector-curvature="0" />
    <path
       d="m 187.10937,196.79687 c 0,0 5.59766,4.60938 -6.17187,8.17579 -22.34375,6.77343 -93.074219,8.82812 -112.707031,0.26171 -7.058594,-3.07421 6.171875,-7.3164 10.335937,-8.23046 4.351563,-0.9375 6.824219,-0.75391 6.824219,-0.75391 -7.839844,-5.54688 -50.753906,10.85937 -21.796875,15.54687 79.01172,12.8125 144.01172,-5.7539 123.51562,-15"
       id="path12"
       inkscape:connector-curvature="0" />
    <path
       d="m 104.32422,136.64062 c 0,0 -35.964845,8.54297 -12.734376,11.66797 9.816406,1.30078 29.374996,1.01563 47.578126,-0.52343 14.89453,-1.25 29.84375,-3.92969 29.84375,-3.92969 0,0 -5.26172,2.26562 -9.0625,4.84375 -36.51172,9.60937 -107.085939,5.1289 -86.773439,-4.6875 17.1875,-8.3086 31.148439,-7.3711 31.148439,-7.3711"
       id="path14"
       inkscape:connector-curvature="0" />
    <path
       d="m 168.85547,172.70703 c 37.13281,-19.29687 19.97265,-37.83594 7.99219,-35.33594 -2.94141,0.625 -4.24219,1.14453 -4.24219,1.14453 0,0 1.0664,-1.71875 3.14844,-2.44921 23.72656,-8.33203 41.95312,24.58593 -7.62891,37.63281 0,0 0.57422,-0.52344 0.73047,-0.99219"
       id="path16"
       inkscape:connector-curvature="0" />
    <path
       d="m 146.45703,27.707031 c 0,0 20.57422,20.574219 -19.5039,52.214844 -32.10938,25.363285 -7.31641,39.843755 0,56.355465 -18.75,-16.90234 -32.527349,-31.79687 -23.28125,-45.679684 13.54296,-20.335937 51.09374,-30.207031 42.78515,-62.890625"
       id="path18"
       inkscape:connector-curvature="0" />
    <path
       d="m 107.96875,225 c 35.65234,2.29297 90.39062,-1.27734 91.69141,-18.125 0,0 -2.5,6.37891 -29.47657,11.45703 -30.41797,5.73047 -67.94531,5.07813 -90.18359,1.40625 0,0 4.558594,3.75 27.96875,5.26172"
       id="path20"
       inkscape:connector-curvature="0" />
  </g>
</svg>

<svg width="256" xmlns="http://www.w3.org/2000/svg" height="256" viewBox="0 0 256 256" xmlns:xlink="http://www.w3.org/1999/xlink">
<g style="fill:#e660c1;fill-rule:evenodd">
<path d="M 100.703125 180.753906 C 100.703125 180.753906 93.125 185.15625 106.066406 186.667969 C 121.769531 188.4375 129.765625 188.175781 147.058594 184.921875 C 147.058594 184.921875 151.613281 187.761719 157.941406 190.234375 C 119.191406 206.847656 70.261719 189.269531 100.703125 180.753906 "/>
<path d="M 95.964844 159.089844 C 95.964844 159.089844 87.472656 165.390625 100.441406 166.71875 C 117.1875 168.4375 130.417969 168.59375 153.308594 164.191406 C 153.308594 164.191406 156.484375 167.394531 161.457031 169.140625 C 114.609375 182.839844 62.421875 170.234375 95.964844 159.089844 "/>
<path d="M 135.859375 122.34375 C 145.417969 133.332031 133.359375 143.230469 133.359375 143.230469 C 133.359375 143.230469 157.605469 130.703125 146.457031 115.050781 C 136.066406 100.417969 128.097656 93.175781 171.277344 68.125 C 171.277344 68.125 103.515625 85.050781 135.859375 122.34375 "/>
<path d="M 187.109375 196.796875 C 187.109375 196.796875 192.707031 201.40625 180.9375 204.972656 C 158.59375 211.746094 87.863281 213.800781 68.230469 205.234375 C 61.171875 202.160156 74.402344 197.917969 78.566406 197.003906 C 82.917969 196.066406 85.390625 196.25 85.390625 196.25 C 77.550781 190.703125 34.636719 207.109375 63.59375 211.796875 C 142.605469 224.609375 207.605469 206.042969 187.109375 196.796875 "/>
<path d="M 104.324219 136.640625 C 104.324219 136.640625 68.359375 145.183594 91.589844 148.308594 C 101.40625 149.609375 120.964844 149.324219 139.167969 147.785156 C 154.0625 146.535156 169.011719 143.855469 169.011719 143.855469 C 169.011719 143.855469 163.75 146.121094 159.949219 148.699219 C 123.4375 158.308594 52.863281 153.828125 73.175781 144.011719 C 90.363281 135.703125 104.324219 136.640625 104.324219 136.640625 "/>
<path d="M 168.855469 172.707031 C 205.988281 153.410156 188.828125 134.871094 176.847656 137.371094 C 173.90625 137.996094 172.605469 138.515625 172.605469 138.515625 C 172.605469 138.515625 173.671875 136.796875 175.753906 136.066406 C 199.480469 127.734375 217.707031 160.652344 168.125 173.699219 C 168.125 173.699219 168.699219 173.175781 168.855469 172.707031 "/>
<path d="M 146.457031 27.707031 C 146.457031 27.707031 167.03125 48.28125 126.953125 79.921875 C 94.84375 105.285156 119.636719 119.765625 126.953125 136.277344 C 108.203125 119.375 94.425781 104.480469 103.671875 90.597656 C 117.214844 70.261719 154.765625 60.390625 146.457031 27.707031 "/>
<path d="M 107.96875 225 C 143.621094 227.292969 198.359375 223.722656 199.660156 206.875 C 199.660156 206.875 197.160156 213.253906 170.183594 218.332031 C 139.765625 224.0625 102.238281 223.410156 80 219.738281 C 80 219.738281 84.558594 223.488281 107.96875 225 "/>
</g>
</svg>
